source/img/logo-text.svg

<svg width="125" height="34" viewBox="0 0 125 34" fill="none" xmlns="http://www.w3.org/2000/svg">
<path fill-rule="evenodd" clip-rule="evenodd" d="M6.40668 33.7442H9.68752H10.8181H13.5669L16.8593 15.997L20.1729 33.7442H22.9661H24.0523H27.3331L32.9416 0.255859H26.0252L23.2454 19.5141L19.8182 0.255859H17.4463H16.3157H13.8994L10.5338 19.4694L7.75892 0.255859H0.798218L6.40668 33.7442ZM43.3938 13.688V6.18993H55.1947V0.255859H43.3938H41.0559H36.3133V28.1628V33.7442H43.3938H53.846L54.7451 28.1628H43.3938V19.3921H53.3243V13.688H43.3938ZM71.7729 6.18993V26.4187L70.4796 33.7442H64.738V6.18993H56.9929V0.255859H64.738H71.7729H79.6956V6.18993H71.7729ZM88.5743 6.18993V13.688H98.5049V19.3921H88.5743V28.1628H94.1938L93.1823 33.7442H88.5743H82.8425H81.4938V0.255859H86.2364H88.5743H100.375V6.18993H88.5743ZM34.515 33.7442V26.3024H28.6708V33.7442H34.515ZM61.0389 26.3024V33.7442H55.1947V26.3024H61.0389ZM77.6726 33.7442V26.3024H71.8283V33.7442H77.6726ZM100.375 26.3024V33.7442H94.531V26.3024H100.375ZM112.877 0.255859H102.173V33.7442H109.221V21.6921H111.947L116.667 33.7442H124.202V33.3992L118.623 19.7741C119.341 19.3519 119.99 18.8566 120.567 18.2881C121.424 17.4447 122.089 16.3867 122.562 15.114C123.035 13.826 123.271 12.2467 123.271 10.376C123.271 8.16795 122.85 6.31259 122.008 4.80991C121.18 3.30723 119.991 2.17255 118.44 1.40587C116.889 0.639197 115.034 0.255859 112.877 0.255859ZM109.221 15.781H112.7C113.498 15.781 114.155 15.5894 114.672 15.206C115.189 14.8227 115.574 14.2783 115.825 13.573C116.091 12.8523 116.224 12.0013 116.224 11.02C116.224 10.008 116.098 9.14163 115.847 8.42095C115.611 7.70028 115.249 7.14827 114.761 6.76493C114.288 6.38159 113.66 6.18993 112.877 6.18993H109.221V15.781Z" fill="#CECFDB"/>
</svg>

<svg width="125" height="34" fill="none" xmlns="http://www.w3.org/2000/svg"><path fill-rule="evenodd" clip-rule="evenodd" d="M6.407 33.744h7.16l3.292-17.747 3.314 17.747h7.16L32.942.256h-6.917l-2.78 19.258L19.818.256H13.9l-3.365 19.213L7.759.256H.799l5.608 33.488Zm36.987-20.056V6.19h11.8V.256H36.314v33.488h17.533l.9-5.581H43.393v-8.77h9.93v-5.705h-9.93ZM71.773 6.19v20.229l-1.293 7.325h-5.742V6.19h-7.745V.256H79.696V6.19h-7.923Zm16.801 0v7.498h9.93v5.704h-9.93v8.77h5.62l-1.012 5.582H81.493V.256h18.882V6.19h-11.8ZM34.515 33.744v-7.442h-5.844v7.442h5.844Zm26.524-7.442v7.442h-5.844v-7.442h5.844Zm16.634 7.442v-7.442h-5.845v7.442h5.845Zm22.702-7.442v7.442h-5.844v-7.442h5.844ZM112.877.256h-10.704v33.488h7.048V21.692h2.726l4.72 12.052h7.535V33.4l-5.579-13.625a9.924 9.924 0 0 0 1.944-1.486c.857-.843 1.522-1.901 1.995-3.174.473-1.288.709-2.867.709-4.738 0-2.208-.421-4.063-1.263-5.566a8.051 8.051 0 0 0-3.568-3.404c-1.551-.767-3.406-1.15-5.563-1.15Zm-3.656 15.525h3.479c.798 0 1.455-.192 1.972-.575.517-.383.902-.928 1.153-1.633.266-.72.399-1.572.399-2.553 0-1.012-.126-1.878-.377-2.599-.236-.72-.598-1.273-1.086-1.656-.473-.383-1.101-.575-1.884-.575h-3.656v9.591Z" fill="#CECFDB"/></svg>
